!SVG/gradle.svg

<!-- Generated by IcoMoon.io -->
<svg version="1.1" xmlns="http://www.w3.org/2000/svg" width="32" height="32" viewBox="0 0 32 32">
<title>gradle</title>
<path d="M14.6 12.5c0 0 0 0 0 0-1.3 1.9-2.4 2.5-3.3 2.5 0.9 0 2-0.7 3.3-2.5z"></path>
<path d="M8.3 11.6c0 0 0 0 0 0-5.8 2.1-4.3 11.4-4.3 11.4v0c0.1-0.1-1.5-9.3 4.3-11.4z"></path>
<path d="M29 11.7c0 0.1 0 0.2 0 0.2 0-0.1 0-0.2 0-0.2z"></path>
<path d="M10.1 13.6c-0.9-1.5-0.6-0.9-1.5-2.7-0.7-1.4 0.1-1.9 1.8-2.5 0.4-0.1 1.1-0.3 1.9-0.5-0.8 0.2-1.4 0.4-1.9 0.5-1.7 0.6-2.5 1.1-1.9 2.5 1 1.7 0.7 1.2 1.6 2.7 0.3 0.6 0.8 0.8 1.3 0.8-0.5 0-1-0.2-1.3-0.8z"></path>
<path d="M26.4 12.3c0 0 0.1 0 0.1-0.1 0.3-0.1 0.6-0.4 0.8-0.6 0 0 0 0 0-0.1 0.5-0.1 1-0.2 1.5-0.3 0 0.1 0 0.1 0 0.2 0-0.5-0.1-1-0.2-1.4-0.2-0.7-0.9-1.6-1.6-2 0 0 0 0 0 0-0.7 0.3-1.4 0.3-2 0.7 0.4 0.3 1 0.7 1.3 1.5 0.3 0.5 0.7 1.6 0.1 2.1-0.3 0.3-0.6 0.5-0.9 0.5 0.3 0 0.6-0.2 0.9-0.5v0z"></path>
<path d="M24.8 8c0 0 0 0 0 0-0.2 0.2-0.2 0.3-0.2 0.3 0.1 0 0.1-0.1 0.2-0.3 0 0 0 0 0 0z"></path>
<path d="M25.4 12.8c-0.7 0-1.7-0.5-3.5-2.2 1.8 1.7 2.8 2.2 3.5 2.2z"></path>
<path d="M9 20.4c0.8 0 1.6 0.9 1.8 2.5v0c-0.2-1.6-1-2.5-1.8-2.5z"></path>
<path d="M28.9 12.2c0 0.1 0 0.1 0 0.2 0-0.1 0-0.1 0-0.2z"></path>
<path d="M25.5 17.1c0 0-0.1 0-0.1 0.1 0-0.1 0.1-0.1 0.1-0.1z"></path>
<path d="M24.6 17.4c-0.1 0-0.2 0.1-0.3 0.1 0.1 0 0.2 0 0.3-0.1z"></path>
<path d="M25.1 17.3c-0.1 0-0.2 0.1-0.3 0.1 0.1 0 0.2-0.1 0.3-0.1z"></path>
<path d="M28.9 12.8c0-0.1 0-0.1 0 0 0-0.1 0-0.1 0 0z"></path>
<path d="M24.1 17.6c-0.1 0-0.1 0-0.2 0 0.1 0 0.2 0 0.2 0z"></path>
<path d="M15.4 20c1.8 0 3.7 3 3.7 3v0c0-0.1-1.9-3.1-3.7-3z"></path>
<path d="M29 11.5c0 0 0 0.1 0 0.1s0 0 0-0.1z"></path>
<path d="M28.9 12.4c0 0.1 0 0.2-0.1 0.3 0.1-0.1 0.1-0.2 0.1-0.3z"></path>
<path d="M29 11.9c0 0.1 0 0.2 0 0.3 0-0.1 0-0.2 0-0.3z"></path>
<path d="M24.3 17.5c-0.1 0-0.1 0-0.2 0 0.1 0.1 0.1 0.1 0.2 0z"></path>
<path d="M25.4 17.2c-0.1 0-0.2 0.1-0.3 0.1 0.1-0.1 0.2-0.1 0.3-0.1z"></path>
<path d="M24.8 17.4c0 0-0.1 0-0.1 0s0 0 0.1 0z"></path>
<path d="M11.3 15c-0.8 0-1.4-0.5-1.8-1-0.7-1.1-1.2-2.3-1.2-2.3s0 0 0 0c0 0.1 0.5 1.3 1.2 2.3 0.4 0.5 1 1 1.8 1z"></path>
<path d="M21.6 22.9v0c0-3.6-0.4-4.9 1.5-5.1 0.3 0 0.6-0.1 0.9-0.2-0.3 0.1-0.6 0.1-0.9 0.2-1.9 0.2-1.5 1.6-1.5 5.1z"></path>
<path d="M7 22.9v0c0.4-1.7 1.2-2.5 2-2.5-0.8 0-1.7 0.8-2 2.5z"></path>
<path d="M11.4 14.4c1.3 0 2.9-1.5 3.2-1.8 0 0 0 0 0-0.1 0 0-1.8 1.9-3.2 1.9z"></path>
<path d="M25.5 17.1c1.5-0.7 2.4-1.9 3-3.4 0.1-0.3 0.2-0.6 0.3-1-0.1 0.3-0.2 0.6-0.3 1-0.6 1.5-1.5 2.7-3 3.4z"></path>
<path d="M13 22.9v0c0.7-2.2 1.5-2.9 2.4-3-0.9 0.1-1.8 0.8-2.4 3z"></path>
<path d="M21.1 10c0.3 0.3 0.6 0.5 0.8 0.7-0.3-0.2-0.6-0.5-0.8-0.7-2.8-2.7-6.5-2.5-8.8-2.1 2.3-0.5 5.9-0.6 8.8 2.1z"></path>
<path d="M25.5 12.8c0 0-0.1 0-0.1 0s0.1 0 0.1 0z"></path>
<path d="M28.9 12.4c0-0.1 0-0.1 0-0.2s0-0.2 0-0.3c0-0.1 0-0.2 0-0.2s0-0.1 0-0.1 0-0.1 0-0.2c-0.5 0-1.1 0.1-1.5 0.3 0 0 0 0 0 0.1-0.2 0.3-0.5 0.5-0.8 0.6 0 0-0.1 0-0.1 0.1l-0.1 0.1c-0.2 0.2-0.5 0.4-0.9 0.4 0 0-0.1 0-0.1 0-0.7 0-1.7-0.5-3.5-2.2-0.3-0.2-0.5-0.5-0.8-0.7-2.9-2.7-6.5-2.5-8.8-2.1-0.8 0.2-1.4 0.4-1.9 0.5-1.7 0.5-2.5 1-1.8 2.4 0.9 1.8 0.6 1.2 1.5 2.7 0.4 0.6 0.8 0.8 1.3 0.8 1.5 0 3.2-1.9 3.2-1.9s0 0 0 0.1c0 0 0.1-0.1 0.1-0.1-1.2 1.8-2.4 2.5-3.3 2.5-0.8 0-1.4-0.5-1.8-1-0.7-1.1-1.2-2.3-1.2-2.3-5.8 2.1-4.2 11.4-4.2 11.4h2.8c0.4-1.7 1.2-2.5 2-2.5s1.6 0.9 1.8 2.5h2.2c0.6-2.2 1.5-2.9 2.4-3 1.8 0 3.7 3 3.7 3h2.5c0-3.6-0.4-4.9 1.5-5.1 0.3 0 0.6-0.1 0.9-0.2 0.1 0 0.1 0 0.2 0s0.1 0 0.2 0 0.2-0.1 0.3-0.1c0 0 0.1 0 0.1 0 0.1 0 0.2-0.1 0.3-0.1s0.2-0.1 0.3-0.1c0 0 0.1 0 0.1-0.1 1.5-0.7 2.4-1.9 3-3.4 0.1-0.3 0.2-0.6 0.3-1 0 0 0 0 0 0 0.1-0.4 0.1-0.5 0.1-0.6zM19.4 14.3c-1.5-0.5-1-2-1-2s0.4 0.1 1 0.3c0.1-0.1 0.2-0.1 0.4-0.2 0.4 0 0.8 0.2 0.9 0.6 0.3 0.1 0.5 0.2 0.8 0.3 0 0.5-0.9 1.4-2.1 1z"></path>
<path d="M19.9 12.4c-0.2 0-0.3 0.1-0.4 0.2 0.4 0.1 0.8 0.3 1.3 0.4-0.1-0.4-0.5-0.6-0.9-0.6z"></path>
<path d="M19.2 13.3c0 0.4 0.4 0.7 0.9 0.7 0.4 0 0.8-0.4 0.7-0.9 0 0 0-0.1 0-0.1-0.5-0.2-0.9-0.3-1.3-0.4-0.2 0.1-0.3 0.4-0.3 0.7z"></path>
<path d="M24.6 8.3c0 0.1 0.1 0.2 0.1 0.3 0.1 0.1 0.2 0.2 0.4 0.3 0 0 0 0 0 0-0.1-0.1-0.3-0.2-0.4-0.3 0-0.1-0.1-0.2-0.1-0.3z"></path>
<path d="M27.2 8.1c-0.6-0.5-1.5-0.9-1.8-0.6-0.1 0-0.4 0.3-0.6 0.5 0.3-0.2 1.2-0.1 1.2-0.1 0.2-0.3 0.7-0.2 1.2 0.2z"></path>
<path d="M27.2 8.1c-0.5-0.3-0.9-0.5-1.2-0.2-0.1 0.1-0.9 0-1.2 0.1 0 0 0 0-0.1 0.1s-0.1 0.2-0.1 0.3c0 0.1 0.1 0.2 0.1 0.2 0.1 0.1 0.2 0.2 0.4 0.3 0.7-0.6 1.4-0.6 2.1-0.8 0 0 0 0 0 0z"></path>
</svg>

<?xml version="1.0" encoding="utf-8"?>
<!-- Generator: Adobe Illustrator 21.1.0, SVG Export Plug-In . SVG Version: 6.00 Build 0)  -->
<!DOCTYPE svg PUBLIC "-//W3C//DTD SVG 1.1//EN" "http://www.w3.org/Graphics/SVG/1.1/DTD/svg11.dtd">
<svg version="1.1" id="Layer_1" xmlns="http://www.w3.org/2000/svg" xmlns:xlink="http://www.w3.org/1999/xlink" x="0px" y="0px"
	 viewBox="0 0 32 32" style="enable-background:new 0 0 32 32;" xml:space="preserve">
<g>
	<path d="M14.6,12.5C14.6,12.5,14.6,12.5,14.6,12.5c-1.3,1.9-2.4,2.5-3.3,2.5C12.2,15,13.3,14.3,14.6,12.5z"/>
	<path d="M8.3,11.6C8.3,11.6,8.3,11.6,8.3,11.6c-5.8,2.1-4.3,11.4-4.3,11.4h0C4.1,22.9,2.5,13.7,8.3,11.6z"/>
	<path d="M29,11.7c0,0.1,0,0.2,0,0.2C29,11.8,29,11.7,29,11.7z"/>
	<path d="M10.1,13.6c-0.9-1.5-0.6-0.9-1.5-2.7C7.9,9.5,8.7,9,10.4,8.4c0.4-0.1,1.1-0.3,1.9-0.5c-0.8,0.2-1.4,0.4-1.9,0.5
		C8.7,9,7.9,9.5,8.5,10.9C9.5,12.6,9.2,12.1,10.1,13.6c0.3,0.6,0.8,0.8,1.3,0.8C10.9,14.4,10.4,14.2,10.1,13.6z"/>
	<path d="M26.4,12.3c0,0,0.1,0,0.1-0.1c0.3-0.1,0.6-0.4,0.8-0.6c0,0,0,0,0-0.1c0.5-0.1,1-0.2,1.5-0.3c0,0.1,0,0.1,0,0.2
		c0-0.5-0.1-1-0.2-1.4c-0.2-0.7-0.9-1.6-1.6-2c0,0,0,0,0,0c-0.7,0.3-1.4,0.3-2,0.7c0.4,0.3,1,0.7,1.3,1.5
		C26.6,10.7,27,11.8,26.4,12.3c-0.3,0.3-0.6,0.5-0.9,0.5C25.8,12.8,26.1,12.6,26.4,12.3L26.4,12.3z"/>
	<path d="M24.8,8C24.8,8,24.8,8,24.8,8c-0.2,0.2-0.2,0.3-0.2,0.3C24.7,8.3,24.7,8.2,24.8,8C24.8,8,24.8,8,24.8,8z"/>
	<path d="M25.4,12.8c-0.7,0-1.7-0.5-3.5-2.2C23.7,12.3,24.7,12.8,25.4,12.8z"/>
	<path d="M9,20.4c0.8,0,1.6,0.9,1.8,2.5h0C10.6,21.3,9.8,20.4,9,20.4z"/>
	<path d="M28.9,12.2c0,0.1,0,0.1,0,0.2C28.9,12.3,28.9,12.3,28.9,12.2z"/>
	<path d="M25.5,17.1c0,0-0.1,0-0.1,0.1C25.4,17.1,25.5,17.1,25.5,17.1z"/>
	<path d="M24.6,17.4c-0.1,0-0.2,0.1-0.3,0.1C24.4,17.5,24.5,17.5,24.6,17.4z"/>
	<path d="M25.1,17.3c-0.1,0-0.2,0.1-0.3,0.1C24.9,17.4,25,17.3,25.1,17.3z"/>
	<path d="M28.9,12.8C28.9,12.7,28.9,12.7,28.9,12.8C28.9,12.7,28.9,12.7,28.9,12.8z"/>
	<path d="M24.1,17.6c-0.1,0-0.1,0-0.2,0C24,17.6,24.1,17.6,24.1,17.6z"/>
	<path d="M15.4,20c1.8,0,3.7,3,3.7,3h0C19.1,22.9,17.2,19.9,15.4,20z"/>
	<path d="M29,11.5c0,0,0,0.1,0,0.1C29,11.6,29,11.6,29,11.5z"/>
	<path d="M28.9,12.4c0,0.1,0,0.2-0.1,0.3C28.9,12.6,28.9,12.5,28.9,12.4z"/>
	<path d="M29,11.9c0,0.1,0,0.2,0,0.3C29,12.1,29,12,29,11.9z"/>
	<path d="M24.3,17.5c-0.1,0-0.1,0-0.2,0C24.2,17.6,24.2,17.6,24.3,17.5z"/>
	<path d="M25.4,17.2c-0.1,0-0.2,0.1-0.3,0.1C25.2,17.2,25.3,17.2,25.4,17.2z"/>
	<path d="M24.8,17.4c0,0-0.1,0-0.1,0C24.7,17.4,24.7,17.4,24.8,17.4z"/>
	<path d="M11.3,15c-0.8,0-1.4-0.5-1.8-1c-0.7-1.1-1.2-2.3-1.2-2.3c0,0,0,0,0,0c0,0.1,0.5,1.3,1.2,2.3C9.9,14.5,10.5,15,11.3,15z"/>
	<path d="M21.6,22.9L21.6,22.9c0-3.6-0.4-4.9,1.5-5.1c0.3,0,0.6-0.1,0.9-0.2c-0.3,0.1-0.6,0.1-0.9,0.2C21.2,18,21.6,19.4,21.6,22.9z
		"/>
	<path d="M7,22.9L7,22.9c0.4-1.7,1.2-2.5,2-2.5C8.2,20.4,7.3,21.2,7,22.9z"/>
	<path d="M11.4,14.4c1.3,0,2.9-1.5,3.2-1.8c0,0,0,0,0-0.1C14.6,12.5,12.8,14.4,11.4,14.4z"/>
	<path d="M25.5,17.1c1.5-0.7,2.4-1.9,3-3.4c0.1-0.3,0.2-0.6,0.3-1c-0.1,0.3-0.2,0.6-0.3,1C27.9,15.2,27,16.4,25.5,17.1z"/>
	<path d="M13,22.9L13,22.9c0.7-2.2,1.5-2.9,2.4-3C14.5,20,13.6,20.7,13,22.9z"/>
	<path d="M21.1,10c0.3,0.3,0.6,0.5,0.8,0.7C21.6,10.5,21.3,10.2,21.1,10c-2.8-2.7-6.5-2.5-8.8-2.1C14.6,7.4,18.2,7.3,21.1,10z"/>
	<path d="M25.5,12.8c0,0-0.1,0-0.1,0C25.4,12.8,25.5,12.8,25.5,12.8z"/>
	<path d="M28.9,12.4c0-0.1,0-0.1,0-0.2c0-0.1,0-0.2,0-0.3c0-0.1,0-0.2,0-0.2c0,0,0-0.1,0-0.1c0-0.1,0-0.1,0-0.2
		c-0.5,0-1.1,0.1-1.5,0.3c0,0,0,0,0,0.1c-0.2,0.3-0.5,0.5-0.8,0.6c0,0-0.1,0-0.1,0.1l-0.1,0.1c-0.2,0.2-0.5,0.4-0.9,0.4
		c0,0-0.1,0-0.1,0c-0.7,0-1.7-0.5-3.5-2.2c-0.3-0.2-0.5-0.5-0.8-0.7c-2.9-2.7-6.5-2.5-8.8-2.1c-0.8,0.2-1.4,0.4-1.9,0.5
		C8.7,9,7.9,9.5,8.6,10.9c0.9,1.8,0.6,1.2,1.5,2.7c0.4,0.6,0.8,0.8,1.3,0.8c1.5,0,3.2-1.9,3.2-1.9c0,0,0,0,0,0.1
		c0,0,0.1-0.1,0.1-0.1c-1.2,1.8-2.4,2.5-3.3,2.5c-0.8,0-1.4-0.5-1.8-1c-0.7-1.1-1.2-2.3-1.2-2.3c-5.8,2.1-4.2,11.4-4.2,11.4H7
		c0.4-1.7,1.2-2.5,2-2.5c0.8,0,1.6,0.9,1.8,2.5H13c0.6-2.2,1.5-2.9,2.4-3c1.8,0,3.7,3,3.7,3h2.5c0-3.6-0.4-4.9,1.5-5.1
		c0.3,0,0.6-0.1,0.9-0.2c0.1,0,0.1,0,0.2,0c0.1,0,0.1,0,0.2,0c0.1,0,0.2-0.1,0.3-0.1c0,0,0.1,0,0.1,0c0.1,0,0.2-0.1,0.3-0.1
		c0.1,0,0.2-0.1,0.3-0.1c0,0,0.1,0,0.1-0.1c1.5-0.7,2.4-1.9,3-3.4c0.1-0.3,0.2-0.6,0.3-1c0,0,0,0,0,0C28.9,12.6,28.9,12.5,28.9,12.4
		z M19.4,14.3c-1.5-0.5-1-2-1-2s0.4,0.1,1,0.3c0.1-0.1,0.2-0.1,0.4-0.2c0.4,0,0.8,0.2,0.9,0.6c0.3,0.1,0.5,0.2,0.8,0.3
		C21.5,13.8,20.6,14.7,19.4,14.3z"/>
	<path d="M19.9,12.4c-0.2,0-0.3,0.1-0.4,0.2c0.4,0.1,0.8,0.3,1.3,0.4C20.7,12.6,20.3,12.4,19.9,12.4z"/>
	<path d="M19.2,13.3c0,0.4,0.4,0.7,0.9,0.7c0.4,0,0.8-0.4,0.7-0.9c0,0,0-0.1,0-0.1c-0.5-0.2-0.9-0.3-1.3-0.4
		C19.3,12.7,19.2,13,19.2,13.3z"/>
	<path d="M24.6,8.3c0,0.1,0.1,0.2,0.1,0.3c0.1,0.1,0.2,0.2,0.4,0.3c0,0,0,0,0,0c-0.1-0.1-0.3-0.2-0.4-0.3
		C24.7,8.5,24.6,8.4,24.6,8.3z"/>
	<path d="M27.2,8.1c-0.6-0.5-1.5-0.9-1.8-0.6C25.3,7.5,25,7.8,24.8,8C25.1,7.8,26,7.9,26,7.9C26.2,7.6,26.7,7.7,27.2,8.1z"/>
	<path d="M27.2,8.1c-0.5-0.3-0.9-0.5-1.2-0.2c-0.1,0.1-0.9,0-1.2,0.1c0,0,0,0-0.1,0.1c-0.1,0.1-0.1,0.2-0.1,0.3
		c0,0.1,0.1,0.2,0.1,0.2c0.1,0.1,0.2,0.2,0.4,0.3C25.8,8.3,26.5,8.3,27.2,8.1C27.2,8.1,27.2,8.1,27.2,8.1z"/>
</g>
</svg>
